public/images/logos/flipboard.svg

<?xml version="1.0" encoding="UTF-8"?><svg id="a" xmlns="http://www.w3.org/2000/svg" viewBox="0 0 260 80"><g id="b"><polygon id="c" points="65.46 24.27 83.43 24.27 83.43 30.23 72.57 30.23 72.57 37.33 81.57 37.33 81.57 42.94 72.56 42.94 72.56 55.21 65.46 55.21 65.46 24.27" style="stroke-width:0px;"/><polygon id="d" points="85.93 24.27 93.02 24.27 93.02 49.25 103.17 49.25 103.17 55.21 85.93 55.21 85.93 24.27" style="stroke-width:0px;"/><polygon id="e" points="105.84 24.27 112.93 24.27 112.93 55.21 105.84 55.21 105.84 24.27" style="stroke-width:0px;"/><path id="f" d="m116.45,24.27h8.85c7.65,0,11.92,3.97,11.92,10.53s-4.27,10.9-11.92,10.9h-1.75v9.51h-7.1v-30.94Zm7.1,5.62v10.14h1.39c3.42,0,5.16-1.69,5.16-5.11s-1.73-5.03-5.16-5.03h-1.39Z" style="stroke-width:0px;"/><path id="g" d="m139.71,24.27h10.18c6.98,0,10.35,3,10.35,8.07,0,2.92-1.43,5.54-5.03,6.43,3.88.68,5.95,3.67,5.95,7.27,0,5.29-3.72,9.17-10.69,9.17h-10.78s.01-30.94.01-30.94Zm7.1,5.62v6.7h1.98c2.96,0,4.31-1.27,4.31-3.51,0-1.98-1.27-3.21-4.18-3.21l-2.11.02h0Zm0,12.04v7.66h2.66c3.09,0,4.6-1.44,4.6-3.93s-1.68-3.72-4.56-3.72h-2.7Z" style="stroke-width:0px;"/><path id="h" d="m174.96,23.75c7.43,0,11.71,5.46,11.71,15.99s-4.27,15.99-11.71,15.99-11.71-5.45-11.71-15.99,4.26-15.99,11.71-15.99Zm0,25.87c2.83,0,4.6-2.92,4.6-9.89s-1.77-9.89-4.6-9.89-4.57,2.91-4.57,9.89,1.73,9.9,4.57,9.9h0Z" style="stroke-width:0px;"/><path id="i" d="m194.6,24.27h9l7.78,30.94h-7.42l-1.31-6.19h-7.54l-1.35,6.19h-7.14s7.98-30.94,7.98-30.94Zm4.27,6.7l-2.58,12.34h5.29l-2.53-12.34h-.18Z" style="stroke-width:0px;"/><path id="j" d="m213.21,24.27h8.87c7.73,0,11.86,3.26,11.86,9.8,0,4.23-1.9,7.36-5.45,8.96l6.51,12.18h-7.68l-5.28-10.99h-1.73v10.99h-7.1v-30.94h0Zm7.1,5.62v8.82h1.77c3.26,0,4.74-1.55,4.74-4.56s-1.48-4.27-4.74-4.27l-1.77.02h0Z" style="stroke-width:0px;"/><path id="k" d="m237.64,24.27h8.92c9.17,0,13.44,6.47,13.44,15.47s-4.27,15.47-13.44,15.47h-8.92v-30.94Zm7.1,5.96v19.02h1.69c4.64,0,6.29-4.44,6.29-9.51,0-5.37-1.64-9.51-6.29-9.51,0,0-1.69,0-1.69,0Z" style="stroke-width:0px;"/><path d="m0,63.98h47.96V16.02H0v47.96ZM8.76,24.27h30.94v10.31h-10.31v10.31h-10.31v10.31h-10.32v-30.93Z" style="stroke-width:0px;"/></g></svg>

<?xml version="1.0" encoding="UTF-8" standalone="no"?>
<svg id="a" viewBox="0 0 32 32" version="1.1" sodipodi:docname="flipboard.svg" width="32" height="32" inkscape:version="1.4-beta2 (9aaf4f34, 2024-07-30)" xmlns:inkscape="http://www.inkscape.org/namespaces/inkscape" xmlns:sodipodi="http://sodipodi.sourceforge.net/DTD/sodipodi-0.dtd" xmlns="http://www.w3.org/2000/svg" xmlns:svg="http://www.w3.org/2000/svg">
  <defs id="defs1" />
  <sodipodi:namedview id="namedview1" pagecolor="#ffffff" bordercolor="#000000" borderopacity="0.25" inkscape:showpageshadow="2" inkscape:pageopacity="0.0" inkscape:pagecheckerboard="0" inkscape:deskcolor="#d1d1d1" inkscape:zoom="0.89471473" inkscape:cx="126.29724" inkscape:cy="43.030475" inkscape:window-width="1440" inkscape:window-height="790" inkscape:window-x="0" inkscape:window-y="0" inkscape:window-maximized="1" inkscape:current-layer="a" />
  <g id="g1" transform="matrix(0.66722269,0,0,0.66722269,-1.062e-7,-10.688908)">
    <path d="M 0,63.98 H 47.96 V 16.02 H 0 Z M 8.76,24.27 H 39.7 V 34.58 H 29.39 V 44.89 H 19.08 V 55.2 H 8.76 Z" style="stroke-width:0px" id="path1" />
  </g>
</svg>
